; generated by PrusaSlicer 2.5.0+MacOS-arm64 on 2022-09-10 at 08:14:42 UTC


;
;
; 

; external perimeters extrusion width = 0.45mm
; perimeters extrusion width = 0.45mm
; infill extrusion width = 0.45mm
; solid infill extrusion width = 0.45mm
; top infill extrusion width = 0.40mm
; first layer extrusion width = 0.42mm

M73 P0 R76
M73 Q0 S76
M201 X1000 Y1000 Z200 E5000 ; sets maximum accelerations, mm/sec^2
M203 X200 Y200 Z12 E120 ; sets maximum feedrates, mm / sec
M204 P1250 R1250 T1250 ; sets acceleration (P, T) and retract acceleration (R), mm/sec^2
M205 X8.00 Y8.00 Z0.40 E4.50 ; sets the jerk limits, mm/sec
M205 S0 T0 ; sets the minimum extruding and travel feed rate, mm/sec
M107
;TYPE:Custom
M862.3 P "MK3S" ; printer model check
M862.1 P0.4 ; nozzle diameter check
M115 U3.11.0 ; tell printer latest fw version
G90 ; use absolute coordinates
M83 ; extruder relative mode
M104 S240 ; set extruder temp
M140 S85 ; set bed temp
M190 S85 ; wait for bed temp
M109 S240 ; wait for extruder temp
G28 W ; home all without mesh bed level
G80 ; mesh bed leveling

G1 Z0.2 F720
G1 Y-3 F1000 ; go outside print area
G92 E0
G1 X60 E9 F1000 ; intro line
G1 X100 E12.5 F1000 ; intro line

G92 E0
M221 S95

; Don't change E values below. Excessive value can damage the printer.
M907 E430 ; set extruder motor current
G21 ; set units to millimeters
G90 ; use absolute coordinates
M83 ; use relative distances for extrusion
M900 K0.08 ; Filament gcode LA 1.5
M900 K45 ; Filament gcode LA 1.0
M107
;LAYER_CHANGE
;Z:0.2
;HEIGHT:0.2
;BEFORE_LAYER_CHANGE
G92 E0.0
;0.2


G1 E-1 F2100
G1 Z.2 F720
;AFTER_LAYER_CHANGE
;0.2
G1 Z.4
G1 X112.432 Y87.121 F10800
G1 Z.2 F720
G1 E1 F2100
M204 S800
;TYPE:Skirt/Brim
;WIDTH:0.42
G1 F1200
G1 X112.943 Y86.618 E.02246
G1 X115.537 Y84.65 E.10211
G1 X117.192 Y84.09 E.05477
G1 X137.466 Y84.016 E.63568
G1 X139.125 Y84.564 E.05477
G1 X141.733 Y86.513 E.10211
G1 X142.247 Y87.012 E.02245
G1 X142.859 Y88.349 E.04612
G1 X142.692 Y89.822 E.04649
G1 X131.022 Y118.544 E.97205
G1 X130.124 Y119.709 E.04612
G1 X128.535 Y120.261 E.05273
G1 X126.387 Y120.269 E.06737
G1 X124.976 Y119.853 E.04612
G1 X123.888 Y118.57 E.05273
G1 X112.008 Y89.934 E.97205
G1 X111.828 Y88.475 E.04612
G1 X112.408 Y87.176 E.0446
M204 S1000
G1 X112.723 Y87.362 F10800
M204 S800
G1 F1200
G1 X113.171 Y86.919 E.01976
G1 X115.765 Y84.95 E.10211
G1 X117.193 Y84.467 E.04727
G1 X137.467 Y84.393 E.63568
G1 X138.899 Y84.866 E.04727
G1 X141.507 Y86.815 E.10211
G1 X141.959 Y87.255 E.01974
G1 X142.501 Y88.507 E.04278
G1 X142.342 Y89.68 E.03713
G1 X130.672 Y118.402 E.97205
G1 X129.817 Y119.466 E.04278
G1 X128.526 Y119.884 E.04255
G1 X126.393 Y119.892 E.0669
G1 X125.092 Y119.479 E.04278
G1 X124.236 Y118.426 E.04255
G1 X112.357 Y89.79 E.97205
G1 X112.218 Y88.432 E.04278
G1 X112.697 Y87.416 E.03524
M204 S1000
; printing object pikachu_1gen_flowalistik.stl id:0 copy 0
;WIPE_START
G1 F8640
G1 X113.171 Y86.919 E-.15857
G1 X115.765 Y84.95 E-.75195
G1 X115.927 Y84.895 E-.03948
;WIPE_END
G1 E-.05 F2100
G1 Z.4 F720
G1 X125.96 Y101.122 F10800
G1 Z.2 F720
G1 E1 F2100
M204 S800
;TYPE:Perimeter
;WIDTH:0.419999
G1 F1200
G1 X125.908 Y100.976 E.00484
G1 X125.718 Y100.802 E.00808
G1 X120.862 Y98.071 E.17468
G1 X120.832 Y97.993 E.00262
G1 X115.858 Y89.556 E.3071
G1 X115.953 Y89.552 E.003
G1 X116.429 Y89.26 E.01751
G1 X116.479 Y89.134 E.00424
G1 X116.571 Y88.596 E.01712
G1 X117.061 Y88.603 E.01537
G1 X117.388 Y88.568 E.01031
G1 X117.639 Y88.382 E.00978
G1 X117.712 Y88.219 E.00559
G1 X118.239 Y88.713 E.02264
G1 X118.776 Y89.138 E.02146
G1 X122.328 Y92.153 E.1461
G1 X122.609 Y92.281 E.00966
G1 X123.004 Y92.242 E.01246
G1 X127.277 Y92.864 E.1354
G1 X127.444 Y92.863 E.00523
G1 X131.499 Y92.245 E.1286
G1 X132.109 Y92.248 E.01912
G1 X132.388 Y92.118 E.00967
G1 X135.86 Y89.126 E.1437
G1 X136.469 Y88.632 E.0246
G1 X136.976 Y88.149 E.02195
G1 X137.028 Y88.281 E.00445
G1 X137.281 Y88.487 E.01025
G1 X137.51 Y88.53 E.00728
G1 X138.119 Y88.517 E.01912
G1 X138.203 Y89 E.01537
G1 X138.266 Y89.179 E.00596
G1 X138.744 Y89.469 E.01752
G1 X138.84 Y89.472 E.003
G1 X133.898 Y98.023 E.30968
G1 X129.062 Y100.79 E.17468
G1 X128.873 Y100.965 E.00808
G1 X128.779 Y101.233 E.0089
G1 X128.82 Y101.497 E.00836
G1 X128.978 Y101.714 E.00841
G1 X127.636 Y116.487 E.46508
G1 X127.258 Y116.488 E.01186
G1 X125.813 Y101.764 E.46387
G1 X125.965 Y101.507 E.00936
G1 X126.004 Y101.244 E.00836
G1 X125.98 Y101.178 E.00218
M204 S1000
G1 X125.62 Y101.238 F10800
M204 S800
;TYPE:External perimeter
G1 F1200
G1 X125.533 Y101.131 E.00433
G1 X120.546 Y98.326 E.17938
G1 X120.508 Y98.184 E.00459
G1 X116.366 Y91.18 E.25516
G1 X115.215 Y89.201 E.07176
G1 X115.94 Y89.175 E.02273
G1 X116.098 Y89.078 E.00584
G1 X116.252 Y88.214 E.0275
G1 X117.262 Y88.212 E.03166
G1 X117.375 Y88.069 E.00571
G1 X117.464 Y87.526 E.01725
G1 X117.744 Y87.716 E.0106
G1 X118.105 Y88.083 E.01615
G1 X118.481 Y88.424 E.01592
G1 X118.997 Y88.831 E.02059
G1 X122.572 Y91.865 E.14704
G1 X122.666 Y91.908 E.00322
G1 X122.999 Y91.86 E.01055
G1 X127.332 Y92.491 E.13729
G1 X131.715 Y91.83 E.13899
G1 X131.988 Y91.876 E.00866
G1 X132.142 Y91.833 E.00502
G1 X135.613 Y88.84 E.1437
G1 X136.213 Y88.354 E.02421
G1 X136.906 Y87.675 E.03042
G1 X137.219 Y87.454 E.012
G1 X137.349 Y88.08 E.02004
G1 X137.502 Y88.153 E.00532
G1 X138.435 Y88.133 E.02928
G1 X138.578 Y88.954 E.02612
G1 X138.755 Y89.092 E.00702
G1 X139.48 Y89.113 E.02273
G1 X138.344 Y91.099 E.07176
G1 X134.253 Y98.134 E.25516
G1 X134.215 Y98.276 E.00459
G1 X129.249 Y101.117 E.17938
G1 X129.163 Y101.225 E.00433
G1 X129.169 Y101.353 E.00402
G1 X129.37 Y101.569 E.00924
G1 X127.981 Y116.856 E.48129
G1 X126.916 Y116.86 E.03341
G1 X125.416 Y101.583 E.48129
G1 X125.615 Y101.366 E.00924
G1 X125.618 Y101.298 E.00214
M204 S1000
G1 X125.716 Y101.139 F10800
;WIPE_START
G1 F8640
G1 X125.533 Y101.131 E-.04327
G1 X122.11 Y99.205 E-.90673
;WIPE_END
G1 E-.05 F2100
G1 Z.4 F720
G1 X138.483 Y89.865 F10800
G1 Z.2 F720
G1 E1 F2100
M204 S800
;TYPE:Solid infill
;WIDTH:0.423344
G1 F1200
G1 X137.426 Y88.808 E.04727
G1 X137.167 Y88.748 E.00841
G1 X136.945 Y88.578 E.00886
G1 X136.796 Y88.715 E.00641
G1 X138.161 Y90.081 E.06111
G1 X137.964 Y90.422 E.01245
G1 X136.506 Y88.964 E.06522
G1 X136.208 Y89.204 E.0121
G1 X137.767 Y90.763 E.06974
G1 X137.57 Y91.103 E.01245
G1 X135.916 Y89.45 E.07396
G1 X135.628 Y89.699 E.01207
G1 X137.372 Y91.444 E.07806
G1 X137.175 Y91.785 E.01245
G1 X135.339 Y89.948 E.08216
G1 X135.05 Y90.197 E.01207
G1 X136.978 Y92.126 E.08626
G1 X136.781 Y92.466 E.01245
G1 X134.761 Y90.446 E.09036
G1 X134.472 Y90.696 E.01207
G1 X136.583 Y92.807 E.09446
G1 X136.386 Y93.148 E.01245
G1 X134.183 Y90.945 E.09856
G1 X133.894 Y91.194 E.01207
G1 X136.189 Y93.488 E.10266
G1 X135.991 Y93.829 E.01245
G1 X133.605 Y91.443 E.10676
G1 X133.316 Y91.692 E.01207
G1 X135.794 Y94.17 E.11086
G1 X135.597 Y94.511 E.01245
G1 X133.027 Y91.941 E.11496
G1 X132.738 Y92.19 E.01207
G1 X135.4 Y94.851 E.11906
G1 X135.202 Y95.192 E.01245
G1 X132.433 Y92.423 E.12389
G1 X132.368 Y92.464 E.00243
G1 X132.154 Y92.528 E.00706
G1 X132.007 Y92.534 E.00467
G1 X135.005 Y95.533 E.13413
G1 X134.808 Y95.874 E.01245
G1 X131.469 Y92.535 E.14935
G1 X131.002 Y92.605 E.01496
G1 X134.61 Y96.214 E.16144
G1 X134.413 Y96.555 E.01245
G1 X130.534 Y92.676 E.17354
G1 X130.066 Y92.746 E.01496
G1 X134.216 Y96.896 E.18563
G1 X134.019 Y97.236 E.01245
G1 X129.599 Y92.817 E.19772
G1 X129.131 Y92.887 E.01496
M73 P0 R75
G1 X133.821 Y97.577 E.20981
G1 X133.68 Y97.822 E.00895
G1 X133.583 Y97.877 E.00351
G1 X128.664 Y92.957 E.22008
G1 X128.196 Y93.028 E.01496
G1 X133.241 Y98.073 E.22569
G1 X132.899 Y98.269 E.01247
G1 X127.728 Y93.098 E.2313
G1 X127.362 Y93.153 E.01172
G1 X127.226 Y93.134 E.00434
G1 X132.557 Y98.464 E.23846
G1 X132.214 Y98.66 E.01247
G1 X126.598 Y93.044 E.25125
G1 X125.97 Y92.954 E.02008
G1 X131.872 Y98.856 E.26405
G1 X131.53 Y99.052 E.01247
G1 X125.342 Y92.863 E.27684
G1 X124.713 Y92.773 E.02008
G1 X131.188 Y99.248 E.28964
G1 X130.846 Y99.443 E.01247
G1 X124.085 Y92.683 E.30244
G1 X123.457 Y92.593 E.02008
G1 X130.503 Y99.639 E.31523
G1 X130.161 Y99.835 E.01247
G1 X122.876 Y92.549 E.32592
G1 X122.762 Y92.568 E.00363
G1 X122.565 Y92.561 E.00625
G1 X122.351 Y92.498 E.00706
G1 X122.179 Y92.391 E.00641
G1 X129.819 Y100.031 E.34178
G1 X129.477 Y100.227 E.01247
G1 X118.662 Y89.412 E.48379
G1 X118.456 Y89.264 E.00803
G1 X117.746 Y88.648 E.02972
G1 X117.529 Y88.817 E.0087
G1 X129.135 Y100.422 E.51918
G1 X128.805 Y100.631 E.01233
G1 X117.06 Y88.885 E.52544
G1 X116.81 Y88.882 E.0079
G1 X116.766 Y89.13 E.00797
G1 X128.575 Y100.939 E.52826
G1 X128.533 Y101.027 E.0031
G1 X128.497 Y101.209 E.00585
G1 X128.511 Y101.412 E.00645
G1 X116.573 Y89.474 E.53405
G1 X116.253 Y89.671 E.01188
G1 X116.283 Y89.723 E.00188
G1 X128.659 Y102.099 E.55365
G1 X128.614 Y102.592 E.01567
G1 X117.053 Y91.031 E.51718
G1 X117.823 Y92.339 E.04803
G1 X128.569 Y103.085 E.48072
G1 X128.525 Y103.578 E.01567
M73 P1 R75
M73 Q1 S76
G1 X126.286 Y101.34 E.10014
G1 X126.286 Y101.217 E.00389
G1 X126.249 Y101.036 E.00585
G1 X126.143 Y100.818 E.00765
G1 X126.026 Y100.681 E.00571
G1 X125.861 Y100.558 E.00649
G1 X125.046 Y100.099 E.02961
G1 X118.594 Y93.648 E.28862
G1 X119.364 Y94.956 E.04803
G1 X123.816 Y99.408 E.19915
G1 X122.586 Y98.716 E.04463
G1 X120.134 Y96.264 E.10967
G1 X120.905 Y97.573 E.04803
G1 X121.801 Y98.469 E.0401
M204 S1000
;WIPE_START
G1 F8640
G1 X120.905 Y97.573 E-.29271
G1 X120.134 Y96.264 E-.35058
G1 X121.074 Y97.204 E-.30671
;WIPE_END
G1 E-.05 F2100
G1 Z.4 F720
G1 X126.024 Y101.615 F10800
G1 Z.2 F720
G1 E1 F2100
M204 S800
G1 F1200
G1 X128.48 Y104.072 E.10988
G1 X128.435 Y104.565 E.01567
G1 X126.147 Y102.277 E.10235
G1 X126.206 Y102.873 E.01896
G1 X128.39 Y105.058 E.09773
G1 X128.345 Y105.551 E.01567
G1 X126.264 Y103.47 E.0931
G1 X126.323 Y104.067 E.01896
G1 X128.301 Y106.044 E.08848
G1 X128.256 Y106.538 E.01567
G1 X126.381 Y104.663 E.08386
G1 X126.44 Y105.26 E.01896
G1 X128.211 Y107.031 E.07923
G1 X128.166 Y107.524 E.01567
G1 X126.498 Y105.856 E.07461
G1 X126.557 Y106.453 E.01896
G1 X128.121 Y108.017 E.06998
G1 X128.077 Y108.51 E.01567
G1 X126.616 Y107.049 E.06536
G1 X126.674 Y107.646 E.01896
G1 X128.032 Y109.004 E.06074
G1 X127.987 Y109.497 E.01567
G1 X126.733 Y108.243 E.05611
G1 X126.791 Y108.839 E.01896
G1 X127.942 Y109.99 E.05149
G1 X127.897 Y110.483 E.01567
G1 X126.85 Y109.436 E.04686
G1 X126.908 Y110.032 E.01896
G1 X127.853 Y110.977 E.04224
G1 X127.808 Y111.47 E.01567
G1 X126.967 Y110.629 E.03762
G1 X127.026 Y111.225 E.01896
G1 X127.763 Y111.963 E.03299
G1 X127.718 Y112.456 E.01567
G1 X127.084 Y111.822 E.02837
G1 X127.143 Y112.419 E.01896
G1 X127.674 Y112.949 E.02374
G1 X127.629 Y113.443 E.01567
G1 X127.201 Y113.015 E.01912
G1 X127.26 Y113.612 E.01896
G1 X127.584 Y113.936 E.0145
G1 X127.539 Y114.429 E.01567
G1 X127.318 Y114.208 E.00987
G1 X127.377 Y114.805 E.01896
G1 X127.651 Y115.078 E.01224
M204 S1000
; stop printing object pikachu_1gen_flowalistik.stl id:0 copy 0
;LAYER_CHANGE
;Z:0.4
;HEIGHT:0.2
;BEFORE_LAYER_CHANGE
G92 E0.0
;0.4


;WIPE_START
G1 F8640
G1 X127.377 Y114.805 E-.08932
G1 X127.318 Y114.208 E-.13841
G1 X127.539 Y114.429 E-.07206
G1 X127.584 Y113.936 E-.11435
G1 X127.26 Y113.612 E-.10582
G1 X127.201 Y113.015 E-.13841
G1 X127.629 Y113.443 E-.13957
G1 X127.674 Y112.949 E-.11435
G1 X127.558 Y112.834 E-.0377
;WIPE_END
G1 E-.05 F2100
G1 Z.4 F720
;AFTER_LAYER_CHANGE
;0.4
M104 S250 ; set temperature
M140 S90 ; set bed temperature
G1 Z.6
G1 X132.522 Y114.851 F10800
G1 Z.4 F720
G1 E1 F2100
;TYPE:Skirt/Brim
;WIDTH:0.42
G1 F3000
G1 X131.022 Y118.544 E.12499
G1 X130.124 Y119.709 E.04612
G1 X128.535 Y120.261 E.05273
G1 X126.387 Y120.269 E.06737
G1 X124.976 Y119.853 E.04612
G1 X123.888 Y118.57 E.05273
G1 X112.008 Y89.934 E.97205
G1 X111.828 Y88.475 E.04612
G1 X112.432 Y87.121 E.04648
G1 X112.943 Y86.618 E.02246
G1 X115.537 Y84.65 E.10211
G1 X117.192 Y84.09 E.05477
G1 X137.466 Y84.016 E.63568
G1 X139.125 Y84.564 E.05477
G1 X141.733 Y86.513 E.10211
G1 X142.247 Y87.012 E.02245
G1 X142.859 Y88.349 E.04612
G1 X142.692 Y89.822 E.04649
G1 X132.545 Y114.795 E.84518
G1 X132.195 Y114.653 F10800
G1 F3000
G1 X130.672 Y118.402 E.12687
G1 X129.817 Y119.466 E.04278
G1 X128.526 Y119.884 E.04255
G1 X126.393 Y119.892 E.0669
M73 Q1 S75
G1 X125.092 Y119.479 E.04278
G1 X124.236 Y118.426 E.04255
G1 X112.357 Y89.79 E.97205
G1 X112.218 Y88.432 E.04278
G1 X112.723 Y87.362 E.03712
G1 X113.171 Y86.919 E.01976
G1 X115.765 Y84.95 E.10211
G1 X117.193 Y84.467 E.04727
G1 X137.467 Y84.393 E.63568
G1 X138.899 Y84.866 E.04727
G1 X141.507 Y86.815 E.10211
G1 X141.959 Y87.255 E.01974
G1 X142.501 Y88.507 E.04278
G1 X142.342 Y89.68 E.03713
G1 X132.218 Y114.598 E.8433
; printing object pikachu_1gen_flowalistik.stl id:0 copy 0
;WIPE_START
G1 F8640
G1 X130.672 Y118.402 E-.9482
G1 X130.667 Y118.408 E-.0018
;WIPE_END
G1 E-.05 F2100
G1 Z.6 F720
G1 X125.611 Y101.098 F10800
G1 Z.4 F720
G1 E1 F2100
M204 S800
;TYPE:Perimeter
;WIDTH:0.449999
G1 F2700
G1 X125.546 Y101.038 E.003
G1 X120.657 Y98.29 E.18981
G1 X120.505 Y97.69 E.02095
G1 X116.664 Y91.195 E.25541
G1 X116.37 Y90.622 E.02181
G1 X115.685 Y89.457 E.04574
G1 X115.867 Y89.45 E.00615
G1 X116.369 Y89.154 E.01975
G1 X116.404 Y89.086 E.00257
G1 X116.518 Y88.519 E.01958
G1 X117.197 Y88.502 E.023
G1 X117.603 Y88.044 E.02074
G1 X118.48 Y88.767 E.03847
G1 X118.908 Y89.046 E.01731
G1 X122.185 Y91.827 E.14547
G1 X122.443 Y91.957 E.00979
G1 X122.685 Y91.963 E.00817
G1 X123.298 Y91.856 E.02109
G1 X127.269 Y92.434 E.13582
G1 X127.449 Y92.434 E.00609
G1 X131.416 Y91.829 E.13581
G1 X131.979 Y91.923 E.01932
G1 X132.271 Y91.923 E.00991
G1 X132.529 Y91.792 E.0098
G1 X135.69 Y89.067 E.14125
G1 X136.15 Y88.753 E.01883
G1 X137.083 Y87.973 E.04119
G1 X137.493 Y88.428 E.02074
G1 X137.672 Y88.451 E.00611
G1 X138.172 Y88.44 E.01694
G1 X138.245 Y88.861 E.01444
G1 X138.325 Y89.074 E.00771
G1 X138.83 Y89.367 E.01975
G1 X139.011 Y89.372 E.00615
G1 X138.342 Y90.531 E.0453
G1 X138.073 Y91.071 E.02042
G1 X134.252 Y97.64 E.25724
G1 X134.104 Y98.241 E.02095
G1 X129.236 Y101.024 E.18981
G1 X129.029 Y101.218 E.00958
G1 X128.931 Y101.503 E.01023
G1 X128.98 Y101.799 E.01014
G1 X129.172 Y102.048 E.01066
G1 X127.835 Y116.763 E.50012
G1 X127.062 Y116.766 E.02618
G1 X125.617 Y102.061 E.50012
G1 X125.808 Y101.811 E.01066
G1 X125.855 Y101.514 E.01014
G1 X125.754 Y101.23 E.01023
G1 X125.655 Y101.138 E.00455
M204 S1000
G1 X125.346 Y101.393 F10800
M204 S800
;TYPE:External perimeter
G1 F1500
G1 X120.294 Y98.553 E.19618
G1 X120.154 Y97.897 E.02267
G1 X116.314 Y91.403 E.25541
G1 X116.019 Y90.828 E.02185
G1 X114.989 Y89.075 E.06883
G1 X115.853 Y89.044 E.02924
G1 X116.02 Y88.945 E.00658
G1 X116.046 Y88.874 E.00257
G1 X116.164 Y88.161 E.02445
G1 X116.255 Y88.108 E.00356
G1 X117.061 Y88.116 E.02728
G1 X117.227 Y87.949 E.00797
G1 X117.335 Y87.295 E.02242
G1 X118.739 Y88.452 E.06158
G1 X119.147 Y88.715 E.01641
G1 X122.448 Y91.517 E.14657
G1 X122.615 Y91.562 E.00585
G1 X123.293 Y91.444 E.02329
G1 X127.388 Y92.031 E.14004
G1 X131.418 Y91.417 E.13801
G1 X132.097 Y91.53 E.02329
G1 X132.263 Y91.483 E.00585
G1 X135.424 Y88.759 E.14125
G1 X135.889 Y88.441 E.01904
G1 X137.346 Y87.222 E.0643
G1 X137.459 Y87.875 E.02242
G1 X137.604 Y88.036 E.00734
G1 X138.475 Y88.026 E.02949
G1 X138.528 Y88.107 E.00325
G1 X138.661 Y88.84 E.02522
G1 X138.841 Y88.96 E.00732
G1 X139.705 Y88.985 E.02925
G1 X138.694 Y90.734 E.06839
G1 X138.431 Y91.263 E.02
G1 X134.58 Y97.91 E.26002
G1 X134.47 Y98.501 E.02036
G1 X129.438 Y101.378 E.19618
G1 X129.344 Y101.497 E.00514
G1 X129.353 Y101.636 E.00472
G1 X129.595 Y101.891 E.01191
G1 X128.207 Y117.162 E.51902
G1 X127.45 Y117.179 E.02565
G1 X126.692 Y117.167 E.02565
G1 X125.193 Y101.907 E.51902
G1 X125.433 Y101.65 E.01191
G1 X125.441 Y101.511 E.00472
G1 X125.384 Y101.439 E.00311
M204 S1000
G1 X125.438 Y101.003 F10800
;WIPE_START
G1 F8640
G1 X121.805 Y99.41 E-.95
;WIPE_END
G1 E-.05 F2100
G1 Z.6 F720
G1 X127.148 Y116.394 F10800
G1 Z.4 F720
G1 E1 F2100
;TYPE:Solid infill
;WIDTH:0.450342
G1 F4800
G1 X127.603 Y115.939 E.02182
G1 X127.661 Y115.305 E.02156
G1 X127.264 Y115.702 E.01902
G1 X127.212 Y115.178 E.01786
G1 X127.718 Y114.672 E.02424
